24x24/emotes/face-monkey.svg

<svg height="24" width="24" xmlns="http://www.w3.org/2000/svg"><circle cx="3.5" cy="10" opacity=".2" r="3.5"/><circle cx="20.5" cy="10" opacity=".2" r="3.5"/><path d="m12 2.5c-5.54 0-10 4.46-10 10s4.46 10 10 10 10-4.46 10-10-4.46-10-10-10z" opacity=".2"/><circle cx="3.5" cy="9.5" fill="#684c2a" r="3.5"/><path d="m3.5 6a3.5 3.5 0 0 0 -3.5 3.5 3.5 3.5 0 0 0 .012.275 3.5 3.5 0 0 1 3.488-3.275 3.5 3.5 0 0 1 3.488 3.225 3.5 3.5 0 0 0 .012-.225 3.5 3.5 0 0 0 -3.5-3.5z" fill="#f4f4f7" opacity=".1"/><circle cx="20.5" cy="9.5" fill="#684c2a" r="3.5"/><path d="m20.5 6a3.5 3.5 0 0 0 -3.5 3.5 3.5 3.5 0 0 0 .012.275 3.5 3.5 0 0 1 3.488-3.275 3.5 3.5 0 0 1 3.488 3.225 3.5 3.5 0 0 0 .012-.225 3.5 3.5 0 0 0 -3.5-3.5z" fill="#f4f4f7" opacity=".1"/><path d="m12 2c-5.54 0-10 4.46-10 10s4.46 10 10 10 10-4.46 10-10-4.46-10-10-10z" fill="#9d672b"/><path d="m8.5 5.5a3.5 3.5 0 0 0 -3.5 3.5 3.5 3.5 0 0 0 2.643 3.389 8 5.5 0 0 0 -3.643 4.611 8 5.5 0 0 0 .246 1.326 9.971 9.971 0 0 0 7.754 3.674 9.97 9.97 0 0 0 7.758-3.68 8 5.5 0 0 0 .242-1.32 8 5.5 0 0 0 -3.646-4.61 3.5 3.5 0 0 0 2.646-3.39 3.5 3.5 0 0 0 -3.5-3.5 3.5 3.5 0 0 0 -3.5 3.5 3.5 3.5 0 0 0 .04.5h-.081a3.5 3.5 0 0 0 .041-.5 3.5 3.5 0 0 0 -3.5-3.5z" opacity=".2"/><ellipse cx="12" cy="16.5" fill="#e2bf56" rx="8" ry="5.5"/><path d="m12 2c-5.54 0-10 4.46-10 10 0 .084-.002.166 0 .25a9.98 9.98 0 0 1 10-9.75 9.98 9.98 0 0 1 10 9.75c.002-.084 0-.166 0-.25 0-5.54-4.46-10-10-10z" fill="#f4f4f7" opacity=".1"/><circle cx="8.5" cy="8.5" fill="#e2bf56" r="3.5"/><path d="m9 9h6v4h-6z" fill="#e2bf56"/><circle cx="8.5" cy="8" opacity=".1" r="1.5"/><circle cx="15.5" cy="8.5" fill="#e2bf56" r="3.5"/><circle cx="15.5" cy="8" opacity=".1" r="1.5"/><circle cx="8.5" cy="7.5" fill="#17191e" r="1.5"/><circle cx="15.5" cy="7.5" fill="#17191e" r="1.5"/><g fill="none" stroke-linecap="round" stroke-linejoin="round"><path d="m7.504 17s1.5 2 4.5 2 4.5-2 4.5-2" opacity=".1" stroke="#000"/><path d="m7.504 16.5s1.5 2 4.5 2 4.5-2 4.5-2" stroke="#17191e"/></g></svg>

<svg height="24" width="24" xmlns="http://www.w3.org/2000/svg">
    <circle cx="3.5" cy="10" opacity=".2" r="3.5"/>
    <circle cx="20.5" cy="10" opacity=".2" r="3.5"/>
    <path d="M12 2.5c-5.54 0-10 4.46-10 10s4.46 10 10 10 10-4.46 10-10-4.46-10-10-10z" opacity=".2"/>
    <circle cx="3.5" cy="9.5" fill="#684c2a" r="3.5"/>
    <path d="M3.5 6A3.5 3.5 0 0 0 0 9.5a3.5 3.5 0 0 0 .012.275A3.5 3.5 0 0 1 3.5 6.5a3.5 3.5 0 0 1 3.488 3.225A3.5 3.5 0 0 0 7 9.5 3.5 3.5 0 0 0 3.5 6z" fill="#f4f4f7" opacity=".1"/>
    <circle cx="20.5" cy="9.5" fill="#684c2a" r="3.5"/>
    <path d="M20.5 6A3.5 3.5 0 0 0 17 9.5a3.5 3.5 0 0 0 .012.275A3.5 3.5 0 0 1 20.5 6.5a3.5 3.5 0 0 1 3.488 3.225A3.5 3.5 0 0 0 24 9.5 3.5 3.5 0 0 0 20.5 6z" fill="#f4f4f7" opacity=".1"/>
    <path d="M12 2C6.46 2 2 6.46 2 12s4.46 10 10 10 10-4.46 10-10S17.54 2 12 2z" fill="#9d672b"/>
    <path d="M8.5 5.5A3.5 3.5 0 0 0 5 9a3.5 3.5 0 0 0 2.643 3.389A8 5.5 0 0 0 4 17a8 5.5 0 0 0 .246 1.326A9.971 9.971 0 0 0 12 22a9.97 9.97 0 0 0 7.758-3.68A8 5.5 0 0 0 20 17a8 5.5 0 0 0-3.646-4.61A3.5 3.5 0 0 0 19 9a3.5 3.5 0 0 0-3.5-3.5A3.5 3.5 0 0 0 12 9a3.5 3.5 0 0 0 .04.5h-.081A3.5 3.5 0 0 0 12 9a3.5 3.5 0 0 0-3.5-3.5z" opacity=".2"/>
    <ellipse cx="12" cy="16.5" fill="#e2bf56" rx="8" ry="5.5"/>
    <path d="M12 2C6.46 2 2 6.46 2 12c0 .084-.002.166 0 .25A9.98 9.98 0 0 1 12 2.5a9.98 9.98 0 0 1 10 9.75c.002-.084 0-.166 0-.25 0-5.54-4.46-10-10-10z" fill="#f4f4f7" opacity=".1"/>
    <circle cx="8.5" cy="8.5" fill="#e2bf56" r="3.5"/>
    <path d="M9 9h6v4H9z" fill="#e2bf56"/>
    <circle cx="8.5" cy="8" opacity=".1" r="1.5"/>
    <circle cx="15.5" cy="8.5" fill="#e2bf56" r="3.5"/>
    <circle cx="15.5" cy="8" opacity=".1" r="1.5"/>
    <circle cx="8.5" cy="7.5" fill="#17191e" r="1.5"/>
    <circle cx="15.5" cy="7.5" fill="#17191e" r="1.5"/>
    <g fill="none" stroke-linecap="round" stroke-linejoin="round">
        <path d="M7.504 17s1.5 2 4.5 2 4.5-2 4.5-2" opacity=".1" stroke="#000"/>
        <path d="M7.504 16.5s1.5 2 4.5 2 4.5-2 4.5-2" stroke="#17191e"/>
    </g>
</svg>
